X:7571
%16638
T:The Director
% Nottingham Music Database
S:Play A B A C, via Phil Rowe
M:6/8
K:Cmaj
"(G7)"EFG ||"C"\
P:bA
A2G ^F2G|E3 CEG|"C"A2G ^F2G|"G"F3 -FEF|"G"B3 A3|
"G"B3 A3|"G"G2G G^F=F|"C"E3 CEG|"C"A2G ^F2G|E3 CEG|
"C"A2G ^F2G|"G"F3 -FEF|"G"B3 A3|"G"B3 A3|"G"G2G GAB|"C"c3 -c3||
"C"\
P:bB
E3 D2E|G,3 G,3|"C"G,A,B, CB,A,|"G"B,3 -B,3|"G"F3 E2F|"G"G,3 G,3|
"G"G,A,B, CD_E|
%Error : Guitar chord name not properly closed
"C"EG,A, "G"
